flags/it-32.svg

<svg width="512" height="512" viewBox="0 0 512 512" fill="none" xmlns="http://www.w3.org/2000/svg">
<rect y="204.863" width="512" height="307.137" fill="var(--flag-palette-blue, #0052b4)"/>
<rect width="512" height="256" fill="var(--flag-palette-white, #eeeeee)"/>
<path d="M130 108.3V300.3C130 366.9 186.7 424.8 255.8 424.8C324.9 424.8 381.8 366.8 381.8 300.2V108.2L255.8 108.9L129.9 108.3H130Z" fill="var(--flag-palette-white, #eeeeee)"/>
<path d="M255.8 428.8C185.4 428.8 126 370 126 300.2V104.2L256 104.9L385.9 104.3V300.3C385.9 369.9 326.4 428.8 255.9 428.8H255.8ZM134 112.3V300.3C134 365.6 189.8 420.8 256 420.8C322 420.8 377.9 365.6 377.9 300.2V112.3L255.9 112.9L134 112.3Z" fill="var(--flag-palette-black, #333333)"/>
<path d="M259.8 423.9H251.8V260.5H130.1V252.5H251.8V110.2H259.8V252.5H380.9V260.5H259.8V423.9Z" fill="var(--flag-palette-black, #333333)"/>
<path fill-rule="evenodd" clip-rule="evenodd" d="M201.125 161.725C199.979 153.102 192.596 146.448 183.659 146.448C179.208 146.448 175.142 148.099 172.04 150.822C177.419 151.462 181.591 156.039 181.591 161.591C181.591 161.673 181.59 161.754 181.588 161.835L155.686 158.112C152.673 157.679 149.975 160.017 149.975 163.061L149.975 211.957C157.523 211.957 163.641 205.382 163.641 197.835V198.29C167.635 198.29 171.228 196.578 173.727 193.846L175.75 196.662L163.656 217.851L190.973 217.851L218.293 217.851L206.197 196.66L208.22 193.845C210.718 196.577 214.312 198.29 218.307 198.29V197.835C218.307 205.382 224.425 211.957 231.973 211.957L231.973 163.061C231.973 160.017 229.275 157.679 226.262 158.112L201.125 161.725Z" fill="var(--flag-palette-black, #333333)"/>
<path fill-rule="evenodd" clip-rule="evenodd" d="M331.125 161.725C329.979 153.102 322.596 146.448 313.659 146.448C309.208 146.448 305.142 148.099 302.04 150.822C307.419 151.462 311.591 156.039 311.591 161.591C311.591 161.673 311.59 161.754 311.588 161.835L285.686 158.112C282.673 157.679 279.975 160.017 279.975 163.061L279.975 211.957C287.523 211.957 293.641 205.382 293.641 197.835V198.29C297.635 198.29 301.228 196.578 303.727 193.846L305.75 196.662L293.656 217.851L320.973 217.851L348.293 217.851L336.197 196.66L338.22 193.845C340.718 196.577 344.312 198.29 348.307 198.29V197.835C348.307 205.382 354.425 211.957 361.973 211.957L361.973 163.061C361.973 160.017 359.275 157.679 356.262 158.112L331.125 161.725Z" fill="var(--flag-palette-bright-red, #d80027)"/>
<path fill-rule="evenodd" clip-rule="evenodd" d="M201.125 294.277C199.979 285.653 192.596 279 183.659 279C179.208 279 175.142 280.651 172.04 283.374C177.419 284.014 181.591 288.591 181.591 294.143C181.591 294.224 181.59 294.306 181.588 294.387L155.686 290.664C152.673 290.231 149.975 292.568 149.975 295.613L149.975 344.509C157.523 344.509 163.641 337.934 163.641 330.387V330.842C167.635 330.842 171.228 329.129 173.727 326.398L175.75 329.214L163.656 350.402L190.973 350.402L218.293 350.402L206.197 329.212L208.22 326.397C210.718 329.129 214.312 330.842 218.307 330.842V330.387C218.307 337.934 224.425 344.509 231.973 344.509L231.973 295.613C231.973 292.568 229.275 290.231 226.262 290.664L201.125 294.277Z" fill="var(--flag-palette-bright-red, #d80027)"/>
<path fill-rule="evenodd" clip-rule="evenodd" d="M331.125 294.277C329.979 285.653 322.596 279 313.659 279C309.208 279 305.142 280.651 302.04 283.374C307.419 284.014 311.591 288.591 311.591 294.143C311.591 294.224 311.59 294.306 311.588 294.387L285.686 290.664C282.673 290.231 279.975 292.568 279.975 295.613L279.975 344.509C287.523 344.509 293.641 337.934 293.641 330.387V330.842C297.635 330.842 301.228 329.129 303.727 326.398L305.75 329.214L293.656 350.402L320.973 350.402L348.293 350.402L336.197 329.212L338.22 326.397C340.718 329.129 344.312 330.842 348.307 330.842V330.387C348.307 337.934 354.425 344.509 361.973 344.509L361.973 295.613C361.973 292.568 359.275 290.231 356.262 290.664L331.125 294.277Z" fill="var(--flag-palette-black, #333333)"/>
</svg>

<svg xmlns="http://www.w3.org/2000/svg" width="512" height="512" fill="none"><path fill="var(--flag-palette-blue, #0052b4)" d="M0 204.9h512V512H0z"/><path fill="var(--flag-palette-white, #eeeeee)" d="M0 0h512v256H0z"/><path fill="var(--flag-palette-white, #eeeeee)" d="M130 108.3v192c0 66.6 56.7 124.5 125.8 124.5s126-58 126-124.6v-192l-126 .7z"/><path fill="var(--flag-palette-black, #333333)" d="M255.8 428.8C185.4 428.8 126 370 126 300.2v-196l130 .7 129.9-.6v196c0 69.6-59.5 128.5-130 128.5zM134 112.3v188c0 65.3 55.8 120.5 122 120.5 66 0 121.9-55.2 121.9-120.6V112.3l-122 .6z"/><path fill="var(--flag-palette-black, #333333)" d="M259.8 423.9h-8V260.5H130.1v-8h121.7V110.2h8v142.3h121.1v8H259.8z"/><path fill="var(--flag-palette-black, #333333)" fill-rule="evenodd" d="M201.1 161.7a17.6 17.6 0 0 0-29-10.9 11 11 0 0 1 9.5 11l-26-3.7a5 5 0 0 0-5.6 5V212a14 14 0 0 0 13.6-14.2v.5q6.2-.1 10.1-4.5l2 2.9-12 21.2h54.6l-12.1-21.2 2-2.9q4 4.3 10.1 4.5v-.5A14 14 0 0 0 232 212v-49a5 5 0 0 0-5.7-4.9z" clip-rule="evenodd"/><path fill="var(--flag-palette-bright-red, #d80027)" fill-rule="evenodd" d="M331.1 161.7a17.6 17.6 0 0 0-29-10.9 11 11 0 0 1 9.5 11l-26-3.7a5 5 0 0 0-5.6 5V212a14 14 0 0 0 13.6-14.2v.5q6.2-.1 10.1-4.5l2 2.9-12 21.2h54.6l-12.1-21.2 2-2.9q4 4.3 10.1 4.5v-.5A14 14 0 0 0 362 212v-49a5 5 0 0 0-5.7-4.9zm-130 132.6a17.6 17.6 0 0 0-29-11 11 11 0 0 1 9.5 11l-26-3.6a5 5 0 0 0-5.6 5v48.8a14 14 0 0 0 13.6-14.1v.4q6.2-.2 10.1-4.4l2 2.8-12 21.2h54.6l-12.1-21.2 2-2.8q4 4.2 10.1 4.4v-.4a14 14 0 0 0 13.7 14.1v-48.9a5 5 0 0 0-5.7-5z" clip-rule="evenodd"/><path fill="var(--flag-palette-black, #333333)" fill-rule="evenodd" d="M331.1 294.3a17.6 17.6 0 0 0-29-11 11 11 0 0 1 9.5 11l-26-3.6a5 5 0 0 0-5.6 5v48.8a14 14 0 0 0 13.6-14.1v.4q6.2-.2 10.1-4.4l2 2.8-12 21.2h54.6l-12.1-21.2 2-2.8q4 4.2 10.1 4.4v-.4a14 14 0 0 0 13.7 14.1v-48.9a5 5 0 0 0-5.7-5z" clip-rule="evenodd"/></svg>
